dist/assets/img/icons/licensing.svg

<svg width="24" height="24" viewBox="0 0 24 24" xmlns="http://www.w3.org/2000/svg"><title>Group</title><g fill="#5C8BE7" fill-rule="evenodd"><path d="M10 0H1C.4 0 0 .4 0 1v9c0 .6.4 1 1 1h9c.6 0 1-.4 1-1V1c0-.6-.4-1-1-1zM10 13H1c-.6 0-1 .4-1 1v9c0 .6.4 1 1 1h9c.6 0 1-.4 1-1v-9c0-.6-.4-1-1-1zM13 2h11v2H13zM13 7h11v2H13zM13 15h11v2H13zM13 20h11v2H13z"/></g></svg>

<?xml version="1.0" encoding="UTF-8" standalone="no"?>
<svg width="24px" height="24px" viewBox="0 0 24 24" version="1.1" xmlns="http://www.w3.org/2000/svg" xmlns:xlink="http://www.w3.org/1999/xlink">
    <!-- Generator: Sketch 3.8.3 (29802) - http://www.bohemiancoding.com/sketch -->
    <title>Group</title>
    <desc>Created with Sketch.</desc>
    <defs></defs>
    <g id="Page-1" stroke="none" stroke-width="1" fill="none" fill-rule="evenodd">
        <g id="Landing-Writers" transform="translate(-153.000000, -1706.000000)" fill="#5C8BE7">
            <g id="ui-24px-glyph-2_paragraph" transform="translate(153.000000, 1706.000000)">
                <g id="Group">
                    <path d="M10,0 L1,0 C0.4,0 0,0.4 0,1 L0,10 C0,10.6 0.4,11 1,11 L10,11 C10.6,11 11,10.6 11,10 L11,1 C11,0.4 10.6,0 10,0 L10,0 Z" id="Shape"></path>
                    <path d="M10,13 L1,13 C0.4,13 0,13.4 0,14 L0,23 C0,23.6 0.4,24 1,24 L10,24 C10.6,24 11,23.6 11,23 L11,14 C11,13.4 10.6,13 10,13 L10,13 Z" id="Shape"></path>
                    <rect id="Rectangle-path" x="13" y="2" width="11" height="2"></rect>
                    <rect id="Rectangle-path" x="13" y="7" width="11" height="2"></rect>
                    <rect id="Rectangle-path" x="13" y="15" width="11" height="2"></rect>
                    <rect id="Rectangle-path" x="13" y="20" width="11" height="2"></rect>
                </g>
            </g>
        </g>
    </g>
</svg>
